; G-Code generated by Simplify3D(R) Version 4.1.1
; Dec 4, 2019 at 9:07:39 AM
; Settings Summary
;   processName,PLA TinyRover
;   applyToModels,Antriebsrad_28.11.2019
;   profileName,Creality Ender 3 TinyRover (modified)
;   profileVersion,2019-05-28 16:44:14
;   baseProfile,Creality Ender 3 (modified)
;   printMaterial,PLA
;   printQuality,Medium
;   printExtruders,
;   extruderName,Primary Extruder
;   extruderToolheadNumber,0
;   extruderDiameter,0.4
;   extruderAutoWidth,1
;   extruderWidth,0.48
;   extrusionMultiplier,0.97
;   extruderUseRetract,1
;   extruderRetractionDistance,5
;   extruderExtraRestartDistance,0
;   extruderRetractionZLift,0.08
;   extruderRetractionSpeed,5400
;   extruderUseCoasting,0
;   extruderCoastingDistance,0.2
;   extruderUseWipe,1
;   extruderWipeDistance,5
;   primaryExtruder,0
;   layerHeight,0.2
;   topSolidLayers,8
;   bottomSolidLayers,5
;   perimeterOutlines,2
;   printPerimetersInsideOut,1
;   startPointOption,2
;   startPointOriginX,0
;   startPointOriginY,0
;   sequentialIslands,0
;   spiralVaseMode,0
;   firstLayerHeightPercentage,90
;   firstLayerWidthPercentage,100
;   firstLayerUnderspeed,0.2
;   useRaft,0
;   raftExtruder,0
;   raftTopLayers,3
;   raftBaseLayers,2
;   raftOffset,3
;   raftSeparationDistance,0.14
;   raftTopInfill,100
;   aboveRaftSpeedMultiplier,0.3
;   useSkirt,1
;   skirtExtruder,0
;   skirtLayers,1
;   skirtOutlines,5
;   skirtOffset,6
;   usePrimePillar,0
;   primePillarExtruder,999
;   primePillarWidth,12
;   primePillarLocation,7
;   primePillarSpeedMultiplier,1
;   useOozeShield,0
;   oozeShieldExtruder,999
;   oozeShieldOffset,2
;   oozeShieldOutlines,1
;   oozeShieldSidewallShape,1
;   oozeShieldSidewallAngle,30
;   oozeShieldSpeedMultiplier,1
;   infillExtruder,0
;   internalInfillPattern,Fast Honeycomb
;   externalInfillPattern,Rectilinear
;   infillPercentage,60
;   outlineOverlapPercentage,22
;   infillExtrusionWidthPercentage,100
;   minInfillLength,5
;   infillLayerInterval,1
;   internalInfillAngles,0
;   overlapInternalInfillAngles,0
;   externalInfillAngles,45,-45
;   generateSupport,1
;   supportExtruder,0
;   supportInfillPercentage,15
;   supportExtraInflation,1
;   supportBaseLayers,0
;   denseSupportExtruder,0
;   denseSupportLayers,0
;   denseSupportInfillPercentage,70
;   supportLayerInterval,1
;   supportHorizontalPartOffset,0.5
;   supportUpperSeparationLayers,1
;   supportLowerSeparationLayers,1
;   supportType,0
;   supportGridSpacing,1.5
;   maxOverhangAngle,60
;   supportAngles,0,45
;   temperatureName,Primary Extruder,Heated Bed
;   temperatureNumber,0,0
;   temperatureSetpointCount,2,2
;   temperatureSetpointLayers,1,2,1,2
;   temperatureSetpointTemperatures,210,195,60,50
;   temperatureStabilizeAtStartup,1,1
;   temperatureHeatedBed,0,1
;   fanLayers,1,2
;   fanSpeeds,0,100
;   blipFanToFullPower,0
;   adjustSpeedForCooling,1
;   minSpeedLayerTime,15
;   minCoolingSpeedSlowdown,20
;   increaseFanForCooling,1
;   minFanLayerTime,45
;   maxCoolingFanSpeed,50
;   increaseFanForBridging,1
;   bridgingFanSpeed,100
;   use5D,1
;   relativeEdistances,0
;   allowEaxisZeroing,1
;   independentExtruderAxes,0
;   includeM10123,0
;   stickySupport,1
;   applyToolheadOffsets,0
;   gcodeXoffset,0
;   gcodeYoffset,0
;   gcodeZoffset,0
;   overrideMachineDefinition,1
;   machineTypeOverride,0
;   strokeXoverride,220
;   strokeYoverride,220
;   strokeZoverride,250
;   originOffsetXoverride,-5
;   originOffsetYoverride,-5
;   originOffsetZoverride,0
;   homeXdirOverride,-1
;   homeYdirOverride,-1
;   homeZdirOverride,-1
;   flipXoverride,1
;   flipYoverride,-1
;   flipZoverride,1
;   toolheadOffsets,0,0|0,0|0,0|0,0|0,0|0,0
;   overrideFirmwareConfiguration,1
;   firmwareTypeOverride,RepRap (Marlin/Repetier/Sprinter)
;   GPXconfigOverride,r2
;   baudRateOverride,115200
;   overridePrinterModels,1
;   printerModelsOverride
;   startingGcode,G28 ; home all axes,G1 X5 Y10 Z0.2 F3000 ; get ready to prime,G92 E0 ; reset extrusion distance,G1 X160 E15 F600 ; prime nozzle,G1 X180 F5000 ; quick wipe
;   layerChangeGcode,
;   retractionGcode,
;   toolChangeGcode,
;   endingGcode,G28 X0 ; home X axis,M106 S0 ; turn off cooling fan,M104 S0 ; turn off extruder,M140 S0 ; turn off bed,M84 ; disable motors
;   exportFileFormat,gcode
;   celebration,0
;   celebrationSong,Random Song
;   postProcessing,
;   defaultSpeed,2400
;   outlineUnderspeed,0.3
;   solidInfillUnderspeed,0.8
;   supportUnderspeed,0.8
;   rapidXYspeed,4800
;   rapidZspeed,1002
;   minBridgingArea,20
;   bridgingExtraInflation,0
;   bridgingExtrusionMultiplier,1
;   bridgingSpeedMultiplier,1
;   useFixedBridgingAngle,0
;   fixedBridgingAngle,0
;   applyBridgingToPerimeters,0
;   filamentDiameters,1.75|1.75|1.75|1.75|1.75|1.75
;   filamentPricesPerKg,46|46|46|46|46|46
;   filamentDensities,1.25|1.25|1.25|1.25|1.25|1.25
;   useMinPrintHeight,0
;   minPrintHeight,0
;   useMaxPrintHeight,0
;   maxPrintHeight,0
;   useDiaphragm,0
;   diaphragmLayerInterval,20
;   robustSlicing,1
;   mergeAllIntoSolid,0
;   onlyRetractWhenCrossingOutline,1
;   retractBetweenLayers,1
;   useRetractionMinTravel,0
;   retractionMinTravel,3
;   retractWhileWiping,0
;   onlyWipeOutlines,1
;   avoidCrossingOutline,0
;   maxMovementDetourFactor,3
;   toolChangeRetractionDistance,12
;   toolChangeExtraRestartDistance,-0.5
;   toolChangeRetractionSpeed,600
;   externalThinWallType,0
;   internalThinWallType,2
;   thinWallAllowedOverlapPercentage,10
;   singleExtrusionMinLength,1
;   singleExtrusionMinPrintingWidthPercentage,50
;   singleExtrusionMaxPrintingWidthPercentage,200
;   singleExtrusionEndpointExtension,0.2
;   horizontalSizeCompensation,0
G90
M82
M106 S0
M140 S60
M190 S60
M104 S210 T0
M109 S210 T0
G28 ; home all axes
G1 X5 Y10 Z0.2 F3000 ; get ready to prime
G92 E0 ; reset extrusion distance
G1 X160 E15 F600 ; prime nozzle
G1 X180 F5000 ; quick wipe
; process PLA TinyRover
; layer 1, Z = 0.180
T0
G92 E0.0000
G1 E-5.0000 F5400
; feature skirt
; tool H0.180 W0.480
G1 Z0.180 F1002
G1 X135.434 Y82.344 F4800
G1 E0.0000 F5400
G92 E0.0000
G1 X140.214 Y77.564 E0.2355 F480
G1 X140.468 Y77.564 E0.2444
G1 X141.626 Y76.529 E0.2985
G1 X141.984 Y76.243 E0.3145
G1 X143.373 Y75.258 E0.3738
G1 X143.760 Y75.014 E0.3898
G1 X145.251 Y74.191 E0.4491
G1 X145.663 Y73.992 E0.4650
G1 X147.236 Y73.340 E0.5244
G1 X147.668 Y73.189 E0.5403
G1 X149.304 Y72.718 E0.5996
G1 X149.751 Y72.616 E0.6156
G1 X151.430 Y72.331 E0.6749
G1 X151.885 Y72.280 E0.6909
G1 X153.585 Y72.184 E0.7502
G1 X154.042 Y72.184 E0.7662
G1 X155.743 Y72.280 E0.8255
G1 X156.197 Y72.331 E0.8414
G1 X157.876 Y72.616 E0.9008
G1 X158.323 Y72.718 E0.9167
G1 X159.959 Y73.189 E0.9761
G1 X160.391 Y73.340 E0.9920
G1 X161.964 Y73.992 E1.0513
G1 X162.376 Y74.191 E1.0673
G1 X163.867 Y75.014 E1.1266
G1 X164.254 Y75.258 E1.1426
G1 X165.643 Y76.243 E1.2019
G1 X166.001 Y76.529 E1.2179
G1 X167.159 Y77.564 E1.2720
G1 X167.413 Y77.564 E1.2808
G1 X172.194 Y82.344 E1.5164
G1 X172.194 Y85.734 E1.6345
G1 X172.540 Y86.935 E1.6781
G1 X172.642 Y87.382 E1.6940
G1 X172.927 Y89.060 E1.7533
G1 X172.978 Y89.515 E1.7693
G1 X173.074 Y91.215 E1.8286
G1 X173.074 Y91.673 E1.8446
G1 X172.978 Y93.373 E1.9039
G1 X172.927 Y93.828 E1.9198
G1 X172.642 Y95.507 E1.9792
G1 X172.540 Y95.953 E1.9951
G1 X172.194 Y97.154 E2.0387
G1 X172.194 Y100.544 E2.1568
G1 X167.413 Y105.324 E2.3923
G1 X167.159 Y105.324 E2.4012
G1 X166.001 Y106.359 E2.4553
G1 X165.643 Y106.645 E2.4713
G1 X164.254 Y107.630 E2.5306
G1 X163.867 Y107.874 E2.5466
G1 X162.376 Y108.697 E2.6059
G1 X161.964 Y108.896 E2.6218
G1 X160.391 Y109.548 E2.6812
G1 X159.959 Y109.699 E2.6971
G1 X158.322 Y110.170 E2.7565
G1 X157.876 Y110.272 E2.7724
G1 X156.197 Y110.557 E2.8317
G1 X155.742 Y110.609 E2.8477
G1 X154.042 Y110.704 E2.9070
G1 X153.585 Y110.704 E2.9230
G1 X151.885 Y110.609 E2.9823
G1 X151.430 Y110.557 E2.9983
G1 X149.751 Y110.272 E3.0576
G1 X149.305 Y110.170 E3.0735
G1 X147.668 Y109.699 E3.1329
G1 X147.236 Y109.548 E3.1488
G1 X145.663 Y108.896 E3.2081
G1 X145.251 Y108.697 E3.2241
G1 X143.760 Y107.874 E3.2834
G1 X143.373 Y107.630 E3.2994
G1 X141.984 Y106.645 E3.3587
G1 X141.626 Y106.359 E3.3747
G1 X140.468 Y105.324 E3.4288
G1 X140.214 Y105.324 E3.4376
G1 X135.434 Y100.544 E3.6732
G1 X135.434 Y97.155 E3.7913
G1 X135.087 Y95.953 E3.8348
G1 X134.985 Y95.507 E3.8508
G1 X134.700 Y93.828 E3.9101
G1 X134.649 Y93.373 E3.9261
G1 X134.554 Y91.673 E3.9854
G1 X134.554 Y91.215 E4.0014
G1 X134.649 Y89.515 E4.0607
G1 X134.700 Y89.060 E4.0766
G1 X134.985 Y87.382 E4.1360
G1 X135.087 Y86.935 E4.1519
G1 X135.434 Y85.733 E4.1955
G1 X135.434 Y82.344 E4.3136
G92 E0.0000
G1 E-5.0000 F5400
G1 Z0.260 F1002
G1 X135.914 Y82.543 F4800
G1 Z0.180 F1002
G1 E0.0000 F5400
G92 E0.0000
G1 X140.412 Y78.044 E0.2217 F480
G1 X140.655 Y78.044 E0.2301
G1 X140.686 Y78.012 E0.2317
G1 X141.936 Y76.896 E0.2901
G1 X142.273 Y76.627 E0.3051
G1 X143.639 Y75.657 E0.3635
G1 X144.004 Y75.428 E0.3785
G1 X145.471 Y74.617 E0.4369
G1 X145.859 Y74.430 E0.4519
G1 X147.408 Y73.789 E0.5103
G1 X147.814 Y73.647 E0.5253
G1 X149.424 Y73.183 E0.5837
G1 X149.845 Y73.087 E0.5987
G1 X151.497 Y72.806 E0.6571
G1 X151.925 Y72.758 E0.6721
G1 X153.598 Y72.664 E0.7305
G1 X154.029 Y72.664 E0.7455
G1 X155.702 Y72.758 E0.8039
G1 X156.130 Y72.806 E0.8189
G1 X157.782 Y73.087 E0.8773
G1 X158.203 Y73.183 E0.8923
G1 X159.813 Y73.647 E0.9507
G1 X160.219 Y73.789 E0.9657
G1 X161.768 Y74.430 E1.0241
G1 X162.156 Y74.617 E1.0391
G1 X163.623 Y75.428 E1.0975
G1 X163.988 Y75.657 E1.1125
G1 X165.354 Y76.627 E1.1709
G1 X165.691 Y76.896 E1.1859
G1 X166.941 Y78.012 E1.2443
G1 X166.972 Y78.044 E1.2459
G1 X167.215 Y78.044 E1.2543
G1 X171.714 Y82.543 E1.4760
G1 X171.714 Y85.801 E1.5896
G1 X172.075 Y87.055 E1.6350
G1 X172.171 Y87.475 E1.6500
G1 X172.451 Y89.127 E1.7084
G1 X172.500 Y89.555 E1.7234
G1 X172.594 Y91.229 E1.7818
G1 X172.594 Y91.660 E1.7968
G1 X172.500 Y93.333 E1.8552
G1 X172.451 Y93.761 E1.8702
G1 X172.171 Y95.413 E1.9286
G1 X172.075 Y95.833 E1.9437
G1 X171.714 Y97.087 E1.9891
G1 X171.714 Y100.345 E2.1026
G1 X167.215 Y104.844 E2.3243
G1 X166.972 Y104.844 E2.3328
G1 X166.941 Y104.876 E2.3343
G1 X165.691 Y105.993 E2.3927
G1 X165.354 Y106.261 E2.4077
G1 X163.988 Y107.231 E2.4661
G1 X163.623 Y107.460 E2.4811
G1 X162.156 Y108.271 E2.5395
G1 X161.768 Y108.458 E2.5545
G1 X160.220 Y109.099 E2.6129
G1 X159.813 Y109.241 E2.6280
G1 X158.203 Y109.705 E2.6863
G1 X157.782 Y109.801 E2.7014
G1 X156.130 Y110.082 E2.7597
G1 X155.702 Y110.130 E2.7748
G1 X154.029 Y110.224 E2.8331
G1 X153.598 Y110.224 E2.8482
G1 X151.925 Y110.130 E2.9066
G1 X151.497 Y110.082 E2.9216
G1 X149.845 Y109.801 E2.9800
G1 X149.424 Y109.705 E2.9950
G1 X147.814 Y109.241 E3.0534
G1 X147.408 Y109.099 E3.0684
G1 X145.859 Y108.458 E3.1268
G1 X145.471 Y108.271 E3.1418
G1 X144.004 Y107.460 E3.2002
G1 X143.639 Y107.231 E3.2152
G1 X142.273 Y106.261 E3.2736
G1 X141.936 Y105.993 E3.2886
G1 X140.686 Y104.876 E3.3470
G1 X140.655 Y104.844 E3.3485
G1 X140.412 Y104.844 E3.3570
G1 X135.914 Y100.345 E3.5787
G1 X135.914 Y97.087 E3.6922
G1 X135.552 Y95.833 E3.7377
G1 X135.456 Y95.413 E3.7527
G1 X135.176 Y93.761 E3.8111
G1 X135.127 Y93.333 E3.8261
G1 X135.034 Y91.660 E3.8845
G1 X135.034 Y91.229 E3.8995
G1 X135.127 Y89.556 E3.9579
G1 X135.176 Y89.127 E3.9729
G1 X135.456 Y87.475 E4.0313
G1 X135.552 Y87.055 E4.0463
G1 X135.914 Y85.801 E4.0918
G1 X135.914 Y82.543 E4.2053
G92 E0.0000
G1 E-5.0000 F5400
G1 Z0.260 F1002
G1 X136.394 Y82.742 F4800
G1 Z0.180 F1002
G1 E0.0000 F5400
G92 E0.0000
G1 X140.611 Y78.524 E0.2078 F480
G1 X140.853 Y78.524 E0.2163
G1 X141.016 Y78.361 E0.2243
G1 X142.246 Y77.263 E0.2817
G1 X142.562 Y77.011 E0.2958
G1 X143.906 Y76.057 E0.3533
G1 X144.248 Y75.842 E0.3673
G1 X145.691 Y75.044 E0.4248
G1 X146.055 Y74.869 E0.4389
G1 X147.579 Y74.238 E0.4963
G1 X147.960 Y74.104 E0.5104
G1 X149.544 Y73.648 E0.5678
G1 X149.938 Y73.558 E0.5819
G1 X151.564 Y73.282 E0.6394
G1 X151.965 Y73.237 E0.6535
G1 X153.611 Y73.144 E0.7109
G1 X154.016 Y73.144 E0.7250
G1 X155.662 Y73.237 E0.7824
G1 X156.063 Y73.282 E0.7965
G1 X157.689 Y73.558 E0.8540
G1 X158.083 Y73.648 E0.8680
G1 X159.667 Y74.104 E0.9255
G1 X160.048 Y74.238 E0.9396
G1 X161.572 Y74.869 E0.9970
G1 X161.936 Y75.044 E1.0111
G1 X163.379 Y75.842 E1.0685
G1 X163.721 Y76.057 E1.0826
G1 X165.065 Y77.011 E1.1401
G1 X165.381 Y77.263 E1.1541
G1 X166.611 Y78.361 E1.2116
G1 X166.774 Y78.524 E1.2196
G1 X167.016 Y78.524 E1.2281
G1 X171.234 Y82.742 E1.4359
G1 X171.234 Y85.869 E1.5449
G1 X171.610 Y87.175 E1.5922
G1 X171.700 Y87.569 E1.6063
G1 X171.976 Y89.195 E1.6637
G1 X172.021 Y89.596 E1.6778
G1 X172.114 Y91.242 E1.7353
G1 X172.114 Y91.646 E1.7493
G1 X172.021 Y93.292 E1.8068
G1 X171.976 Y93.694 E1.8209
G1 X171.700 Y95.319 E1.8783
G1 X171.610 Y95.713 E1.8924
G1 X171.234 Y97.019 E1.9397
G1 X171.234 Y100.146 E2.0487
G1 X167.016 Y104.364 E2.2565
G1 X166.774 Y104.364 E2.2650
G1 X166.611 Y104.527 E2.2730
G1 X165.381 Y105.626 E2.3305
G1 X165.065 Y105.878 E2.3445
G1 X163.721 Y106.832 E2.4020
G1 X163.379 Y107.047 E2.4161
G1 X161.936 Y107.844 E2.4735
G1 X161.572 Y108.019 E2.4876
G1 X160.048 Y108.650 E2.5450
G1 X159.667 Y108.784 E2.5591
G1 X158.083 Y109.240 E2.6166
G1 X157.689 Y109.330 E2.6306
G1 X156.063 Y109.606 E2.6881
G1 X155.662 Y109.652 E2.7022
G1 X154.016 Y109.744 E2.7596
G1 X153.612 Y109.744 E2.7737
G1 X151.965 Y109.652 E2.8311
G1 X151.564 Y109.606 E2.8452
G1 X149.938 Y109.330 E2.9027
G1 X149.544 Y109.240 E2.9168
G1 X147.960 Y108.784 E2.9742
G1 X147.579 Y108.650 E2.9883
G1 X146.055 Y108.019 E3.0457
G1 X145.691 Y107.844 E3.0598
G1 X144.248 Y107.047 E3.1173
G1 X143.906 Y106.832 E3.1313
G1 X142.562 Y105.878 E3.1888
G1 X142.246 Y105.626 E3.2029
G1 X141.016 Y104.527 E3.2603
G1 X140.853 Y104.364 E3.2683
G1 X140.611 Y104.364 E3.2768
G1 X136.394 Y100.146 E3.4846
G1 X136.394 Y97.019 E3.5936
G1 X136.017 Y95.713 E3.6409
G1 X135.927 Y95.319 E3.6550
G1 X135.651 Y93.694 E3.7125
G1 X135.606 Y93.292 E3.7265
G1 X135.514 Y91.646 E3.7840
G1 X135.514 Y91.242 E3.7981
G1 X135.606 Y89.596 E3.8555
G1 X135.651 Y89.195 E3.8696
G1 X135.927 Y87.569 E3.9270
G1 X136.017 Y87.175 E3.9411
G1 X136.394 Y85.869 E3.9885
G1 X136.394 Y82.742 E4.0974
G92 E0.0000
G1 E-5.0000 F5400
G1 Z0.260 F1002
G1 X136.874 Y82.941 F4800
G1 Z0.180 F1002
G1 E0.0000 F5400
G92 E0.0000
G1 X140.810 Y79.004 E0.1940 F480
G1 X141.055 Y79.004 E0.2025
G1 X141.080 Y78.977 E0.2038
G1 X141.346 Y78.710 E0.2169
G1 X142.556 Y77.629 E0.2734
G1 X142.850 Y77.394 E0.2866
G1 X144.173 Y76.456 E0.3431
G1 X144.492 Y76.255 E0.3562
G1 X145.912 Y75.471 E0.4127
G1 X146.252 Y75.307 E0.4259
G1 X147.750 Y74.686 E0.4824
G1 X148.106 Y74.562 E0.4955
G1 X149.664 Y74.113 E0.5520
G1 X150.032 Y74.029 E0.5652
G1 X151.631 Y73.757 E0.6217
G1 X152.006 Y73.715 E0.6348
G1 X153.625 Y73.624 E0.6913
G1 X154.002 Y73.624 E0.7045
G1 X155.621 Y73.715 E0.7610
G1 X155.996 Y73.757 E0.7741
G1 X157.595 Y74.029 E0.8306
G1 X157.963 Y74.113 E0.8438
G1 X159.521 Y74.562 E0.9003
G1 X159.877 Y74.686 E0.9134
G1 X161.375 Y75.307 E0.9699
G1 X161.715 Y75.471 E0.9831
G1 X163.135 Y76.255 E1.0396
G1 X163.454 Y76.456 E1.0527
G1 X164.777 Y77.394 E1.1092
G1 X165.071 Y77.629 E1.1224
G1 X166.281 Y78.710 E1.1789
G1 X166.547 Y78.977 E1.1920
G1 X166.572 Y79.004 E1.1933
G1 X166.817 Y79.004 E1.2018
G1 X170.754 Y82.941 E1.3958
G1 X170.754 Y85.937 E1.5002
G1 X171.145 Y87.295 E1.5495
G1 X171.229 Y87.663 E1.5626
G1 X171.500 Y89.262 E1.6191
G1 X171.543 Y89.636 E1.6323
G1 X171.634 Y91.256 E1.6888
G1 X171.634 Y91.633 E1.7019
G1 X171.543 Y93.252 E1.7584
G1 X171.500 Y93.627 E1.7716
G1 X171.229 Y95.226 E1.8281
G1 X171.145 Y95.593 E1.8412
G1 X170.754 Y96.951 E1.8904
G1 X170.754 Y99.948 E1.9948
G1 X166.817 Y103.884 E2.1888
G1 X166.572 Y103.884 E2.1974
G1 X166.547 Y103.911 E2.1986
G1 X166.281 Y104.178 E2.2118
G1 X165.071 Y105.259 E2.2683
G1 X164.777 Y105.494 E2.2814
G1 X163.454 Y106.432 E2.3379
G1 X163.135 Y106.633 E2.3511
G1 X161.715 Y107.418 E2.4076
G1 X161.375 Y107.581 E2.4207
G1 X159.877 Y108.202 E2.4772
G1 X159.521 Y108.326 E2.4904
G1 X157.963 Y108.775 E2.5469
G1 X157.595 Y108.859 E2.5600
G1 X155.996 Y109.131 E2.6165
G1 X155.621 Y109.173 E2.6297
G1 X154.002 Y109.264 E2.6862
